X:1
T: Irish Reel
P:Kerr's 2nd #248
R:Reel
Q: 232
K:D
M:4/4
L:1/8
|:dc|BE ((3EEE) BE GA|Bc dB AD FA|BE ((3EEE) GE GA|Be ^df ge =dc|
BE ((3EEE) BE GA|Bc dB AD FA|BE ((3EEE) GE GA|Be ^df ge e2|
Be ef gf eg|fe de fa fd|Be ef gf e=c|BA GF GE E2|
Be ef gf eg|fe de fa gf|e^d df gf e=c|BA GF E2:|
